src/pos-icons/axe.svg

<svg height="24" viewBox="0 0 24 24" width="24" xmlns="http://www.w3.org/2000/svg"><path d="m12 2 10 6c0 4-2 6-6 7l-3-5-4-4zm-7.89 17.84-1.99-1.51 7.07-9.33 1.81 1.81z"/></svg>

<?xml version="1.0" encoding="UTF-8"?><!DOCTYPE svg PUBLIC "-//W3C//DTD SVG 1.1//EN" "http://www.w3.org/Graphics/SVG/1.1/DTD/svg11.dtd"><svg xmlns="http://www.w3.org/2000/svg" xmlns:xlink="http://www.w3.org/1999/xlink" version="1.1" id="mdi-axe" width="24" height="24" viewBox="0 0 24 24"><path d="M12,2L22,8C22,12 20,14 16,15L13,10L9,6L12,2M4.11,19.84L2.12,18.33L9.19,9L11,10.81L4.11,19.84Z" /></svg>
